build/img/message-question.svg

<svg width="24" height="24" viewBox="0 0 24 24" fill="none" xmlns="http://www.w3.org/2000/svg">
<path d="M8 22.3199C7.72 22.3199 7.42998 22.2499 7.16998 22.1099C6.59998 21.8099 6.25 21.2099 6.25 20.5699V19.15C3.23 18.84 1.25 16.6199 1.25 13.4399V7.43994C1.25 3.99994 3.56 1.68994 7 1.68994H17C20.44 1.68994 22.75 3.99994 22.75 7.43994V13.4399C22.75 16.8799 20.44 19.1899 17 19.1899H13.23L8.96997 22.03C8.67997 22.22 8.34 22.3199 8 22.3199ZM7 3.17993C4.42 3.17993 2.75 4.84993 2.75 7.42993V13.43C2.75 16.01 4.42 17.68 7 17.68C7.41 17.68 7.75 18.02 7.75 18.43V20.56C7.75 20.69 7.83 20.75 7.88 20.78C7.93001 20.81 8.03001 20.84 8.14001 20.77L12.59 17.81C12.71 17.73 12.86 17.68 13.01 17.68H17.01C19.59 17.68 21.26 16.01 21.26 13.43V7.42993C21.26 4.84993 19.59 3.17993 17.01 3.17993H7Z" fill="#9197B3"/>
<path d="M11.9998 12.1099C11.5898 12.1099 11.2498 11.7699 11.2498 11.3599V11.1499C11.2498 9.9899 12.0998 9.41989 12.4198 9.19989C12.7898 8.94989 12.9098 8.7799 12.9098 8.5199C12.9098 8.0199 12.4998 7.60986 11.9998 7.60986C11.4998 7.60986 11.0898 8.0199 11.0898 8.5199C11.0898 8.9299 10.7498 9.2699 10.3398 9.2699C9.92984 9.2699 9.58984 8.9299 9.58984 8.5199C9.58984 7.1899 10.6698 6.10986 11.9998 6.10986C13.3298 6.10986 14.4098 7.1899 14.4098 8.5199C14.4098 9.6599 13.5698 10.2299 13.2598 10.4399C12.8698 10.6999 12.7498 10.8699 12.7498 11.1499V11.3599C12.7498 11.7799 12.4098 12.1099 11.9998 12.1099Z" fill="#9197B3"/>
<path d="M12 14.6001C11.58 14.6001 11.25 14.2601 11.25 13.8501C11.25 13.4401 11.59 13.1001 12 13.1001C12.41 13.1001 12.75 13.4401 12.75 13.8501C12.75 14.2601 12.42 14.6001 12 14.6001Z" fill="#9197B3"/>
</svg>

<svg width="24" height="24" fill="none" xmlns="http://www.w3.org/2000/svg"><path d="M8 22.32c-.28 0-.57-.07-.83-.21-.57-.3-.92-.9-.92-1.54v-1.42c-3.02-.31-5-2.53-5-5.71v-6C1.25 4 3.56 1.69 7 1.69h10c3.44 0 5.75 2.31 5.75 5.75v6c0 3.44-2.31 5.75-5.75 5.75h-3.77l-4.26 2.84c-.29.19-.63.29-.97.29ZM7 3.18c-2.58 0-4.25 1.67-4.25 4.25v6c0 2.58 1.67 4.25 4.25 4.25.41 0 .75.34.75.75v2.13c0 .13.08.19.13.22s.15.06.26-.01l4.45-2.96c.12-.08.27-.13.42-.13h4c2.58 0 4.25-1.67 4.25-4.25v-6c0-2.58-1.67-4.25-4.25-4.25H7Z" fill="#9197B3"/><path d="M12 12.11c-.41 0-.75-.34-.75-.75v-.21c0-1.16.85-1.73 1.17-1.95.37-.25.49-.42.49-.68 0-.5-.41-.91-.91-.91s-.91.41-.91.91c0 .41-.34.75-.75.75s-.75-.34-.75-.75c0-1.33 1.08-2.41 2.41-2.41s2.41 1.08 2.41 2.41c0 1.14-.84 1.71-1.15 1.92-.39.26-.51.43-.51.71v.21c0 .42-.34.75-.75.75ZM12 14.6a.749.749 0 1 1-.002-1.498A.749.749 0 0 1 12 14.6Z" fill="#9197B3"/></svg>
